brandFactory_export/1.Light/Intercambio_1Light.svg

<?xml version="1.0" encoding="UTF-8"?>
<svg width="24px" height="24px" viewBox="0 0 24 24" version="1.1" xmlns="http://www.w3.org/2000/svg" xmlns:xlink="http://www.w3.org/1999/xlink">
    <title>1.Light/Intercambio_1Light</title>
    <g id="Symbols" stroke="none" stroke-width="1" fill="none" fill-rule="evenodd">
        <g id="1.Light/Intercambio_1Light" fill="#5CB615" fill-rule="nonzero">
            <path d="M20.8773109,5.47563025 L20.8470588,5.9394958 C20.8033613,6.58151261 20.4403361,9.89915966 17.4655462,11.9697479 L16.7462185,12.4705882 L17.5462185,12.8302521 C22.1882353,14.9042017 22.2890756,19.7478992 22.292437,19.794958 C22.292437,20.3058824 21.8789916,20.7193277 21.3714286,20.7193277 C20.8672269,20.7193277 20.4537815,20.3058824 20.4504202,19.794958 C20.4403361,19.2470588 20.1815126,14.9210084 14.7966387,13.9294118 C14.9008403,13.5764706 14.9613445,13.1865546 14.9613445,12.7462185 C14.9613445,12.1815126 14.8672269,11.6941176 14.6991597,11.2773109 C18.5042017,9.95294118 18.9546218,6.75294118 19.005042,6.01008403 L18.9848739,5.48571429 L17.6537815,5.47226891 L19.9226891,3.15966387 L22.2084034,5.47226891 L20.8773109,5.47563025 Z M11.8420168,14.8739496 C11.4453782,14.8739496 11.1058824,14.8201681 10.8235294,14.7159664 C10.594958,14.6352941 10.3966387,14.5243697 10.2453782,14.3764706 C10.0840336,14.2218487 9.96638655,14.0168067 9.8789916,13.7747899 C9.77478992,13.4890756 9.71764706,13.1462185 9.71764706,12.7394958 C9.71764706,12.2554622 9.80168067,11.8588235 9.94957983,11.5428571 C10.0302521,11.3714286 10.1243697,11.2168067 10.2487395,11.0957983 C10.4168067,10.9344538 10.6285714,10.8134454 10.887395,10.7294118 C11.1596639,10.6420168 11.4756303,10.5983193 11.8420168,10.5983193 C12.2084034,10.5983193 12.5243697,10.6420168 12.7932773,10.7294118 C13.0554622,10.8134454 13.2739496,10.9378151 13.4420168,11.0991597 C13.5663866,11.2201681 13.6605042,11.3714286 13.7411765,11.5428571 C13.892437,11.8588235 13.9764706,12.2554622 13.9764706,12.7394958 C13.9764706,13.1462185 13.9159664,13.492437 13.8117647,13.7815126 C13.7243697,14.0201681 13.6033613,14.2218487 13.4453782,14.3764706 C13.2907563,14.5277311 13.092437,14.6352941 12.8571429,14.7193277 C12.5714286,14.8201681 12.2352941,14.8739496 11.8420168,14.8739496 Z M3.09243697,19.794958 C3.08571429,20.2991597 2.67226891,20.712605 2.16470588,20.712605 C1.66386555,20.7092437 1.25378151,20.2957983 1.25378151,19.794958 C1.25378151,19.7445378 1.35798319,14.8672269 6.08403361,12.8067227 L6.88739496,12.4571429 L6.17142857,11.9495798 C3.24369748,9.8789916 2.88403361,6.58151261 2.84369748,5.94285714 L2.74285714,5.48571429 L1.4789916,5.47226891 L3.76134454,3.15966387 L6.03697479,5.47226891 L4.65210084,5.4789916 L4.68907563,6.00672269 C4.74285714,6.74957983 5.19327731,9.94957983 8.99159664,11.2739496 C8.82352941,11.6907563 8.73277311,12.1815126 8.73277311,12.7428571 C8.73277311,13.1764706 8.79327731,13.5630252 8.89411765,13.912605 C3.36134454,14.8705882 3.10252101,19.2436975 3.09243697,19.794958 Z M23.512605,5.38151261 L20.4235294,2.25882353 C20.205042,1.98655462 19.805042,1.9394958 19.4621849,2.21848739 L16.3529412,5.38487395 C16.194958,5.57983193 16.1647059,5.85882353 16.2722689,6.08403361 C16.3798319,6.31260504 16.6016807,6.45042017 16.8436975,6.45042017 L17.9428571,6.4605042 C17.7344538,7.5092437 16.9680672,9.52941176 14.1512605,10.4201681 C14.1378151,10.4067227 14.1310924,10.3966387 14.1210084,10.3865546 C13.589916,9.86890756 12.8201681,9.61008403 11.8352941,9.61008403 C10.8537815,9.61008403 10.0840336,9.86890756 9.55294118,10.3865546 C9.5394958,10.4 9.53277311,10.4168067 9.51932773,10.4302521 C6.71596639,9.55966387 5.94285714,7.58655462 5.73445378,6.4605042 L6.83697479,6.45042017 C7.08571429,6.45042017 7.30420168,6.3092437 7.41512605,6.08067227 C7.52268908,5.85546218 7.48907563,5.57647059 7.29747899,5.34453782 L4.26218487,2.26218487 L4.15798319,2.15462185 C4.02352941,2.04705882 3.85546218,2 3.68739496,2.02016807 C3.51932773,2.04033613 3.36806723,2.1210084 3.30084034,2.21512605 L0.181512605,5.37478992 C0.0201680672,5.57310924 -0.0134453782,5.8487395 0.0941176471,6.07394958 C0.201680672,6.30252101 0.423529412,6.44369748 0.668907563,6.44369748 L1.90588235,6.45378151 C2.05714286,7.61344538 2.65546218,10.2655462 4.95798319,12.2453782 C0.322689076,14.7495798 0.268907563,19.7378151 0.268907563,19.7915966 C0.268907563,20.8369748 1.11596639,21.6907563 2.17478992,21.7008403 C3.21008403,21.7008403 4.06386555,20.8504202 4.08067227,19.8117647 C4.08739496,19.3445378 4.32268908,15.5865546 9.35798319,14.8436975 C9.42521008,14.9277311 9.48235294,15.0184874 9.55966387,15.0957983 C10.0907563,15.6067227 10.8571429,15.8655462 11.8420168,15.8655462 C12.8268908,15.8655462 13.5932773,15.6067227 14.1277311,15.0957983 C14.2016807,15.0252101 14.2588235,14.9378151 14.3226891,14.8571429 C19.2201681,15.6268908 19.4554622,19.3445378 19.4621849,19.805042 C19.4689076,20.8537815 20.3226891,21.707563 21.3680672,21.707563 C22.4201681,21.707563 23.2739496,20.8470588 23.2739496,19.794958 C23.2739496,19.7411765 23.2201681,14.7966387 18.6722689,12.2890756 C21.0117647,10.3226891 21.6235294,7.72436975 21.7815126,6.46722689 L23.0117647,6.45378151 C23.2605042,6.45378151 23.4823529,6.31260504 23.589916,6.08403361 C23.7008403,5.85546218 23.6705882,5.57983193 23.512605,5.38151261 L23.512605,5.38151261 Z" id="Intercambio_1Light"></path>
        </g>
    </g>
</svg>

<svg width="24" height="24" viewBox="0 0 24 24" xmlns="http://www.w3.org/2000/svg"><path d="M20.877 5.476l-.03.463c-.044.643-.407 3.96-3.381 6.03l-.72.502.8.36c4.642 2.073 4.743 6.917 4.746 6.964 0 .51-.413.924-.92.924a.927.927 0 01-.922-.924c-.01-.548-.268-4.874-5.653-5.866a4.14 4.14 0 00.164-1.183 3.9 3.9 0 00-.262-1.469c3.805-1.324 4.256-4.524 4.306-5.267l-.02-.524-1.331-.014 2.269-2.312 2.285 2.312-1.33.004zm-9.035 9.398c-.397 0-.736-.054-1.018-.158a1.559 1.559 0 01-.579-.34 1.541 1.541 0 01-.366-.601 3.016 3.016 0 01-.161-1.036c0-.484.084-.88.232-1.196a1.51 1.51 0 01.299-.447c.168-.162.38-.283.638-.367a3.12 3.12 0 01.955-.13c.366 0 .682.043.951.13.262.084.48.209.649.37.124.121.219.272.3.444.15.316.234.712.234 1.196 0 .407-.06.753-.164 1.043a1.58 1.58 0 01-.367.594 1.582 1.582 0 01-.588.343c-.286.101-.622.155-1.015.155zm-8.75 4.921a.932.932 0 01-.927.918.922.922 0 01-.911-.918c0-.05.104-4.928 4.83-6.988l.803-.35-.716-.507C3.244 9.879 2.884 6.582 2.844 5.943l-.101-.457-1.264-.014L3.761 3.16l2.276 2.312-1.385.007.037.528c.054.743.504 3.943 4.303 5.267-.168.417-.26.908-.26 1.469 0 .433.061.82.162 1.17-5.533.958-5.791 5.33-5.802 5.882zm20.42-14.413l-3.088-3.123c-.219-.272-.619-.32-.962-.04l-3.11 3.166a.668.668 0 00-.08.699.63.63 0 00.572.366l1.099.01c-.209 1.05-.975 3.07-3.792 3.96l-.03-.033c-.531-.518-1.3-.777-2.286-.777-.981 0-1.751.259-2.282.777-.014.013-.02.03-.034.043-2.803-.87-3.576-2.843-3.785-3.97l1.103-.01a.638.638 0 00.578-.37c.108-.225.074-.504-.118-.735L4.262 2.262l-.104-.107a.63.63 0 00-.47-.135c-.169.02-.32.101-.387.195L.18 5.375a.663.663 0 00-.087.699c.108.229.33.37.575.37l1.237.01c.151 1.16.75 3.812 3.052 5.791C.323 14.75.268 19.738.268 19.792c0 1.045.848 1.899 1.907 1.909 1.035 0 1.889-.85 1.906-1.89.006-.466.242-4.224 5.277-4.967.067.084.124.174.202.252.53.51 1.297.77 2.282.77.985 0 1.751-.26 2.286-.77.074-.07.13-.158.195-.239 4.897.77 5.132 4.488 5.14 4.948a1.914 1.914 0 001.905 1.903c1.052 0 1.906-.86 1.906-1.913 0-.054-.054-4.998-4.602-7.506 2.34-1.966 2.952-4.565 3.11-5.822l1.23-.013c.249 0 .47-.141.578-.37a.666.666 0 00-.077-.702z" fill="#5CB615" fill-rule="nonzero"/></svg>
